X: 22
T:Double Setback, Headington 3
M:2/2
L:1/8
A:Headington
P:A(AB)4
K:G
P:A
|:z2|dedB G2FG|ABAF D2Bc|dgfe dcBA|B2G2 G2:|
P:B
|:Bc|d2g2 d2Bc|d2g2 d2Bc|d2gf edcB|1c2A2 A2:|2e2A2 A2||
